dist/image/menu.svg

<svg width="18" height="12" fill="none" xmlns="http://www.w3.org/2000/svg"><path d="M0 12h6v-2H0v2ZM0 0v2h18V0H0Zm0 7h12V5H0v2Z" fill="#fff"/></svg>

<svg width="18" height="12" viewBox="0 0 18 12" fill="none" xmlns="http://www.w3.org/2000/svg">
<path d="M0 12H6V10H0V12ZM0 0V2H18V0H0ZM0 7H12V5H0V7Z" fill="white"/>
</svg>
